!!!COM: Ricci, Cesarina
!!!CDT:
!!!PTL: Il primo libro de madrigali à cinque voci
!!!PPP: Venice
!!!PPR: Angelo Gardano
!!!PDT: 1597
!!!PUB-format:
!!!RISM: R 1253
!!!OTL: Giunto a la tomba ove al suo spirto vivo
!!!AGN: Madrigal
!!!SCT: Tsg12096c
!!!SCA: Tsg12096c
!!!original-voices: 5
!!!extant-voices: 3
!!!complete: N
!!!final: (E)E
**kern	**text	**kern	**text	**kern	**text
*part3	*part3	*part2	*part2	*part1	*part1
*staff3	*staff3	*staff2	*staff2	*staff1	*staff1
*I"Basso	*	*I"Tenore	*	*I"Alto	*
*I'B	*	*I'T	*	*I'A	*
*oclefF4	*	*oclefC4	*	*oclefC3	*
*clefF4	*	*clefGv2	*	*clefG2	*
*k[]	*	*k[]	*	*k[]	*
*omet(C|)	*	*omet(C|)	*	*omet(C|)	*
*M2/1	*	*M2/1	*	*M2/1	*
=1	=1	=1	=1	=1	=1
!!LO:TX:a:t=Prima parte
0r	.	1e	Giun-	0r	.
.	.	2e	-to a	.	.
.	.	2c	la	.	.
=2	=2	=2	=2	=2	=2
1r	.	1B	tom-	0r	.
1AA	Giun-	1A	-ba,	.	.
=3	=3	=3	=3	=3	=3
2.C	-to a	1.E	<Giun-	1r	.
4D	la	.	.	.	.
1E	tom-	.	.	1e	Giun-
.	.	2e	-to a	.	.
=4	=4	=4	=4	=4	=4
1AA	-ba,	2c	la	2e	-to a
.	.	1A	tom-	2c	la
1r	.	.	.	1B	tom-
.	.	2G#X	.	.	.
=5	=5	=5	=5	=5	=5
1AA	<Giun-	2A	-ba,>	2A	-ba,
.	.	1E	O-	2A	<Giun-
2AA	-to a	.	.	2c	-to a
2FF	la	[2A	-v'al	2d	la
=6	=6	=6	=6	=6	=6
1EE	tom-	2A]	.	1e	tom-
.	.	2G#X	suo	.	.
1AA	-ba,> o-	[1A	spir-	1c#X	-ba,> o-
=7	=7	=7	=7	=7	=7
2AA	-v'al	2A]	.	2c#i	-v'al
2AA	suo	2A	-to	2c#i	suo
1GG	spir-	2D	vi-	2d	spir-
.	.	2E	.	2B	-to
=8	=8	=8	=8	=8	=8
1FF	-to	2.F	.	1A	vi-
.	.	4G	.	.	.
2.F	vi-	1A	.	2A	-vo,
.	.	.	.	[2f	vi-
4E	.	.	.	.	.
=9	=9	=9	=9	=9	=9
1D	.	1A	-vo	4f]	.
.	.	.	.	4e	.
.	.	.	.	2d	.
2AA	-vo	[1A	Do-	2e	-vo
[2AA	Do-	.	.	[2e	Do-
=10	=10	=10	=10	=10	=10
2AA]	.	2A]	.	2e]	.
2GG	-lo-	1D	-lo-	2g	-lo-
1GG	-ro-	.	.	1d	-ro-
.	.	[2G	-ro-	.	.
=11	=11	=11	=11	=11	=11
1C	-sa	4G]	.	2e	-sa
.	.	4G	-sa	.	.
.	.	2E	pri-	2c	pri-
1BB	pri-	1D	-gion	1d	-gion
=12	=12	=12	=12	=12	=12
1C	-gion	2r	.	1.e	il
.	.	2G	il	.	.
1C	il	1g	ciel	.	.
.	.	.	.	[2g	ciel
=13	=13	=13	=13	=13	=13
1c	ciel	1e	pre-	2g]	.
.	.	.	.	1e	pre-
1A	pre-	[1c	-scris-	.	.
.	.	.	.	[2e	-scris-
=14	=14	=14	=14	=14	=14
1F	-scris-	2c]	.	2e]	.
.	.	2A	-se,	2d	.
1E	-se,	2r	.	1e	-se,
.	.	[2e	Pal-	.	.
=15	=15	=15	=15	=15	=15
2r	.	2e]	.	2r	.
1E	Pal-	2B	-li-	1e	Pal-
.	.	1B	-do,	.	.
2BB	-li-	.	.	2d#X	-li-
=16	=16	=16	=16	=16	=16
1BB	-do,	1r	.	1d#i	-do,
*	*	*	*	*lig	*
1C#X	fred-	1E	fred-	1e	fred-
=17	=17	=17	=17	=17	=17
1D	-do,	1D	-do,	1f#X	.
*	*	*	*	*Xlig	*
[1GG	mu-	[1D	mu-	2g	-do,
.	.	.	.	[2d	mu-
=18	=18	=18	=18	=18	=18
2GG]	.	2D]	.	2d]	.
2GG	-to,	2D	-to,	2d	-to,
1r	.	1r	.	4r	.
.	.	.	.	4e	e
.	.	.	.	4c	qua-
.	.	.	.	4d	-si
=19	=19	=19	=19	=19	=19
0r	.	0r	.	2f	pri-
.	.	.	.	4.c	-vo
.	.	.	.	8G	Di
.	.	.	.	4A	mo-
.	.	.	.	4c	-vi-
.	.	.	.	2B	-men-
=20	=20	=20	=20	=20	=20
0r	.	0r	.	2d	-to, al
.	.	.	.	2.e	mar-
.	.	.	.	4g	-m'il
.	.	.	.	4a	vol-
.	.	.	.	4a	-t'af-
=21	=21	=21	=21	=21	=21
0r	.	0r	.	1g#X	-fis-
.	.	.	.	1g#i	-se.
=22	=22	=22	=22	=22	=22
2A	Al	2r	.	1r	.
4A	fin	2A	Al-	.	.
4A	sgor-	.	.	.	.
8DL	-gan-	4A	-fin	2r	.
8E	.	.	.	.	.
8F	.	4A	sgor-	.	.
8G	.	.	.	.	.
8A	.	8DL	-gan-	2a	Al
8G	.	8E	.	.	.
8F	.	8F	.	.	.
8EJ	.	8GJ	.	.	.
=23	=23	=23	=23	=23	=23
8DL	.	4.A	.	4a	fin
8E	.	.	.	.	.
8F	.	.	.	4a	sgor-
8EJ	.	8GL	.	.	.
4D	.	8F	.	8dL	-gan-
.	.	8EJ	.	8e	.
8CL	.	4D	.	8f	.
8BBJ	.	.	.	8gJ	.
[1AA	.	1A	-d'un	2a	.
.	.	.	.	2e	-d'un
=24	=24	=24	=24	=24	=24
2AA]	.	2.e	la-	2.c	la-
2AA	-d'un	.	.	.	.
.	.	4e	-chri-	4c	-chri-
2.E	la-	2e	-mo-	2B	-mo-
.	.	2e	-so	2B	-so
4E	-chri-	.	.	.	.
=25	=25	=25	=25	=25	=25
2E	-mo-	1r	.	2.e	ri-
2E	-so	.	.	.	.
.	.	.	.	4d	.
[1AA	ri-	4c	ri-	4c	.
.	.	4d	.	4B	.
.	.	4e	.	4A	.
.	.	4d	.	4B	.
=26	=26	=26	=26	=26	=26
1AA]	.	4c	.	4c	.
.	.	4B	.	4d	.
.	.	2A	.	1e	.
[1E	-vo,	1G#X	-vo,	.	.
.	.	.	.	2e	-vo,
=27	=27	=27	=27	=27	=27
1E]	.	1r	.	1r	.
1r	.	1A	In	2r	.
.	.	.	.	2c	In
=28	=28	=28	=28	=28	=28
1r	.	2B-X	un	2d	un
.	.	2.G	lan-	1d	lan-
1D	In	.	.	.	.
.	.	4F#X	-gui-	.	.
.	.	2F#i	-do: "ohi-	2A	-gui-
=29	=29	=29	=29	=29	=29
2E	un	[0G	-mè!"	1e	-do: "ohi-
2.C	lan-	.	.	.	.
.	.	.	.	2g	-mè!",
4BB	-gui-	.	.	.	.
2BB	-do: "ohi-	.	.	2g	<In
=30	=30	=30	=30	=30	=30
1C	-mè!"	0G]	.	2g	un
.	.	.	.	2.e	lan-
1r	.	.	.	.	.
.	.	.	.	4e	-gui-
.	.	.	.	2d	-do: "ohi-
=31	=31	=31	=31	=31	=31
2C	pro-	2r	.	2c	-mè!">
4.F	-rup-	2.A	pro-	4r	.
.	.	.	.	2c	pro-
8G	.	.	.	.	.
4A	.	.	.	.	.
4AA	-pe,	4.c	-rup-	4.e	-rup-
4r	.	.	.	.	.
.	.	8d	.	8d	.
4AA	<pro-	4e	.	4c	.
=32	=32	=32	=32	=32	=32
4.D	-rup-	4d	-pe,	4A	-pe,
.	.	2D	<pro-	2d	<pro-
8E	.	.	.	.	.
4F	.	.	.	.	.
4FF	-pe,>	4.F	-rup-	4.c	-ru-
2r	.	.	.	.	.
.	.	8G	.	8B	.
.	.	2A	.	4.A	.
2F	e	.	.	.	.
.	.	.	.	8G	.
.	.	4A	-pe,> e	[4F	.
=33	=33	=33	=33	=33	=33
1D	dis-	1F	dis-	4F]	.
.	.	.	.	4f	-pe,> e
.	.	.	.	2d	dis-
2AA	-se:	2E	-se:	2e	-se:
2AA	"O	[2A	"O	2e	"O
=34	=34	=34	=34	=34	=34
1.D	sas-	2A]	.	1.f	sas-
.	.	1d	sas-	.	.
2E	-so a-	[2c	-so a-	2g	-so a-
=35	=35	=35	=35	=35	=35
1F	-ma-	2c]	.	1f	-ma-
.	.	2A	-ma-	.	.
4C	-t'et	4G	-t'et	4e	-t'et
2C	ho-	2G	ho-	2e	ho-
4D	-no-	4F#X	-no-	4d	-no-
=36	=36	=36	=36	=36	=36
4GG	-ra-	4G	-ra-	4d	-ra-
4AA	-to	4E	-to	4c#X	-to
2BB-X	tan-	2D	tan-	2d	tan-
[1AA	-to,	2E	-to,	2c#X	-to,
.	.	2E	<O	[2e	<O
=37	=37	=37	=37	=37	=37
1AA]	.	1.A	sas-	2e]	.
.	.	.	.	1a	sas-
1r	.	.	.	.	.
.	.	2B	-so a-	2g	-so a-
=38	=38	=38	=38	=38	=38
0r	.	1c	-ma-	1g	-ma-
.	.	4G	-t'et	4g	-t'et
.	.	2G	ho-	2g	ho-
.	.	4A	-no-	4e	-no-
=39	=39	=39	=39	=39	=39
1r	.	4D	-ra-	4f	-ra-
.	.	4E	-to	2e	-to
.	.	2F	tan-	.	.
.	.	.	.	4d	tan-
2r	.	2E	-to,>	2e	-to,>
2E	Che	2G#X	Che	2e	Che
=40	=40	=40	=40	=40	=40
4.AA	den-	4.A	den-	4.e	den-
8BB	-tr'hai	8GnXi	-tr'hai	8d	-tr'hai
4C	le	4E	le	4c	le
4E	mie	4G	mie	4B	mie
2AA	fiam-	2A	fiam-	2e	fiam-
2E	-me,	4G#X	-me,	2e	-me e
.	.	4G#i	<Che	.	.
=41	=41	=41	=41	=41	=41
1r	.	4.A	den-	2.e	fuor
.	.	8B	-tr'hai	.	.
.	.	4c	le	.	.
.	.	4e	mie	4g	il
2r	.	2A	fiam-	2e	pian-
2E	Che	2e	-me>	4e	-to,
.	.	.	.	4e	Che
=42	=42	=42	=42	=42	=42
4.AA	den-	0r	.	2e	den-
8BB	-tr'hai	.	.	.	.
4C	le	.	.	2.e	-tr'hai
4E	mie	.	.	.	.
2AA	fiam-	.	.	.	.
.	.	.	.	2a	le
2E	-me e	.	.	.	.
.	.	.	.	4g	mie
=43	=43	=43	=43	=43	=43
1.C	fuor	0E	e	2.g	fiam-
.	.	.	.	4f	.
.	.	.	.	2e	.
2BB	il	.	.	2d	-m'e
=44	=44	=44	=44	=44	=44
0AA	pian-	2e	fuor	2c	fuor
.	.	2d	il	2d	il
.	.	1c	pian-	1e	pian-
=45	=45	=45	=45	=45	=45
0El	-to."	0Bl	-to."	0el	-to."
==	==	==	==	==	==
*-	*-	*-	*-	*-	*-
!!!system-decoration: [*]
!!!YEM:	Cesarina Ricci de Tingoli, "Giunto a la tomba ove al suo spirto vivo," 1597 (Tsg12096c; Nov 2017) Tasso in Music Project (http://www.tassomusic.org) Copyright 2016 Emiliano Ricciardi
!!!RDF**kern: i = editorial accidental
!!!RDF**kern: l = terminal long
!!!ENC: Emiliano Ricciardi
!!!END: 2019
!!!EED: Deutsch, Catherine
!!!EEV: 2018/09/25
!!!YEC: Copyright 2018 Emiliano Ricciardi, All Rights Reserved
!!!ONB: Translated from MusicXML on 2018/09/25
!!@@BEGIN:	VERSEDATA
!!@CATALOGNUM:	Tsg12096
!!@LAST_MODIFIED: 2020/07/12
!!@TITLE:		Giunto a la tomba ove al suo spirto vivo
!!@CANTO:		XII
!!@OTTAVA:	96
!!@MANUSRC:	G-Al, G-Am, G-Au, G-Br<sub>1</sub>, G-Br<sub>2</sub>, G-Cv, G-Es<sub>1</sub>, G-Es<sub>2</sub>, G-Es<sub>3</sub>, G-F, G-Fr, G-Fr<sub>1</sub>, G-Fr<sub>2</sub>, G-Mc, G-Mc<sub>1</sub>, G-Mg, G-Mr, G-Mt, G-N, G-Ol
!!@PRINTSRC:	G-1580CM, G-1581B, G-1581CV, G-1581R, G-1581MR, G-1581P, G-1581V, G-1581V<sub>bis</sub>, G-1582C, G-1582M, G-1582MC, G-1582P, G-1582SC, G-1582SC<sub>bis</sub>, G-1583S, G-1584O, G-1584S, G-1585C, G-1585S, G-1588S, G-1589S, G-1590B, G-1590S, G-1592S, G-1593S, G-1594C, G-1595C, G-1597C, G-1598C, G-1599C, G-1600C, G-1600S, G-1601C, G-1601R, G-1602C, G-1604C, G-1604Cl, G-1604F, G-1604P, G-1606B, G-1606B<sub>bis</sub>, G-1606L, G-1607ZR, G-1608DP, G-1609GC, G-1610M, G-1611S, G-1611V, G-1612P, G-1613M, G-1613P, G-1613V, G-1615P, G-1616M, G-1617P, G-1619B, G-1619V, G-1620M, G-1620S, G-1621R, G-1624I, G-1624MT, G-1625C, G-1625S, G-1625SS, G-1626C, G-1626Co, G-1627M, G-1628T, G-1628Tu, G-1630L, G-1630T, G-1632FT, G-1639CF, G-1642M, G-1643I, G-1644P, G-1644S
!!@@BEGIN:	VERSES
!!@ABOUTIT:
!!@ABOUTEN:
!!@EDITOR:	Angelo Solerti
!!@EDITION_TITLE: Gerusalemme liberata. Poema eroico di Torquato Tasso. Edizione critica sui manoscritti e le prime stampe.
!!@EDITION_LOC:	Florence
!!@EDITION_PUB:	G. Barbera
!!@EDITION_DATE:  1895
!!@EDITION_VOL:
!!@EDITION_PAGE:
!!@TRANSLATOR:	Emiliano Ricciardi and Amyrose McCue Gill
!!@VERSE:
!!	Giunto a la tomba ove al suo spirto vivo
!!	Dolorosa prigione il Ciel prescrisse;
!!	Pallido, freddo, muto, e quasi privo
!!	Di movimento, al marmo gli occhi affisse.
!!	Alfin sgorgando un lagrimoso rivo,
!!	In un languido oimè proruppe, e disse:
!!	"O sasso amato ed onorato tanto
!!	Che dentro hai le mie fiamme, e fuori il pianto:"
!!@MVERSE_DATE: 20230824
!!@MVERSE:
!!	Giun||to_a la tom||ba_o||ve_al suo spir||to vi||vo		=a
!!	Do|lo|ro||sa pri|gio||ne_il Ciel pre|scris||se;			=b
!!	Pal||li|do, fred||do, mu||to,_e qua||si pri||vo			=a*
!!	Di mo|vi|men||to,_al mar||mo gli_oc||chi_af|fis||se.		=b
!!	Al|fin|| sgor|gan||do_un la|gri|mo||so ri||vo,			=a
!!	In un lan||gui|do_oi|mè|| pro|rup||pe,_e dis||se:		=b
!!	"O sas||so_a|ma||to_ed o|no|ra||to tan||to			=c*
!!	Che den||tro_hai le mie fiam||me,_e fuo||ri_il pian||to:"	=c
!!@TVERSE:
!![Having] reached the tomb where for her living spirit
!!	A sorrowful prison Heaven mandated;
!!	Pale, cold, mute, and almost lacking
!!	In movement, upon marble he fixed his eyes.
!!	At last disgorging a tearful river,
!!	With a weak “Oh dear” burst forth, and he said:
!!	"O stone, beloved and so honored
!!	That within you have my flames, and without my tears:"
!!@@END:		VERSES
!!@OTHER_CRIT_ED:  Torquato Tasso, <i>Gerusalemme liberata</i>, ed. Lanfranco Caretti, 2 vols. (Bari: Laterza, 1967).
!!@ATTRIBUTION_ABOUT:
!!@DATING:	mid-1560s through 1570s
!!@DEDICATEE:	Duke Alfonso II d'Este
!!@COMMENTARY:
!!@@END:		VERSEDATA
!!@@BEGIN: SETTING
!!@CATALOGNUM:	Tsg12096c
!!@CANTO:		XII
!!@OTTAVA:	96
!!@TITLE:	Giunto a la tomba ove al suo spirto vivo
!!@COMPOSER:	Ricci, Cesarina
!!@PARTS:		1 of 2
!!@PRINCEPSTITLE:	Il primo libro de madrigali à cinque voci
!!@PRINCEPSLOC:	Venice
!!@NORMLOC:	Venice
!!@NORMPUB:	Angelo Gardano
!!@NORMPUBSHORT:	Gardano
!!@PRINCEPSPUB:	Angelo Gardano
!!@PRINCEPSYEAR:	1597
!!@PRINCEPSRISM:	R 1253
!!@OVOICES:	5
!!@EXTANTVOICES:	3
!!@OMENSURATION:	Cut-C
!!@OCLEFS:	C3,C4,F4
!!@OTIME:		
!!@OKEYSIG:	-
!!@FINAL:		(E)E
!!@TIMPEDITOR:	Deutsch, Catherine
!!@REPRINTS:	
!!@@END: SETTING
